src/svgs/medical-book.svg

<svg xmlns="http://www.w3.org/2000/svg" viewBox="0 0 24 24" width="512" height="512"><path d="M6 22a2 2 0 01-2-2V4a2 2 0 012-2zM20 4v16a2 2 0 01-2 2H8V2h6v6l2-2 2 2V2a2 2 0 012 2zm-3 11h-2v-2h-2v2h-2v2h2v2h2v-2h2z"/></svg>

<svg xmlns="http://www.w3.org/2000/svg" viewBox="0 0 24 24"><path d="M6,22a2,2,0,0,1-2-2V4A2,2,0,0,1,6,2ZM20,4V20a2,2,0,0,1-2,2H8V2h6V8l2-2,2,2V2A2,2,0,0,1,20,4ZM17,15H15V13H13v2H11v2h2v2h2V17h2Z"/></svg>
